src/images/kwis-icon-whatsapp.svg

<svg width="30" height="30" viewBox="0 0 30 30" fill="none" xmlns="http://www.w3.org/2000/svg">
<path d="M14.666 29.395C22.6741 29.395 29.166 22.9031 29.166 14.895C29.166 6.88689 22.6741 0.39502 14.666 0.39502C6.65789 0.39502 0.166016 6.88689 0.166016 14.895C0.166016 22.9031 6.65789 29.395 14.666 29.395Z" fill="#25D366"/>
<path fill-rule="evenodd" clip-rule="evenodd" d="M15.1438 22.9621H15.1403C13.6972 22.9617 12.2793 22.5996 11.0199 21.9127L6.44922 23.1117L7.67242 18.6438C6.91789 17.3362 6.52086 15.8529 6.52151 14.3333C6.5234 9.57936 10.3913 5.71167 15.1437 5.71167C17.4503 5.71267 19.6151 6.61059 21.243 8.24036C22.8708 9.87004 23.7668 12.0363 23.7659 14.3401C23.764 19.0929 19.8977 22.9602 15.1438 22.9621ZM11.2317 20.3518L11.4934 20.5071C12.5937 21.16 13.855 21.5055 15.1409 21.506H15.1438C19.0937 21.506 22.3085 18.2911 22.3101 14.3396C22.3109 12.4247 21.5662 10.6242 20.2131 9.2696C18.8601 7.915 17.0608 7.16864 15.1466 7.16797C11.1937 7.16797 7.97883 10.3825 7.97726 14.3338C7.97671 15.6879 8.35559 17.0066 9.07296 18.1476L9.24335 18.4188L8.51939 21.0633L11.2317 20.3518ZM19.1926 16.1964C19.3428 16.269 19.4443 16.3181 19.4876 16.3904C19.5414 16.4802 19.5414 16.9116 19.362 17.4149C19.1824 17.9181 18.3217 18.3774 17.9078 18.4392C17.5366 18.4947 17.0669 18.5179 16.5509 18.3539C16.2379 18.2546 15.8367 18.122 15.3227 17.9001C13.303 17.028 11.9381 15.0705 11.6801 14.7005C11.6621 14.6746 11.6494 14.6564 11.6424 14.647L11.6406 14.6447C11.5266 14.4926 10.7627 13.4733 10.7627 12.4184C10.7627 11.426 11.2501 10.9059 11.4745 10.6664C11.4899 10.65 11.504 10.635 11.5167 10.6211C11.7142 10.4054 11.9476 10.3515 12.0912 10.3515C12.2348 10.3515 12.3786 10.3528 12.5041 10.3592C12.5196 10.3599 12.5357 10.3598 12.5524 10.3597C12.6779 10.359 12.8344 10.3581 12.9888 10.729C13.0482 10.8717 13.1352 11.0833 13.2268 11.3065C13.4122 11.7578 13.617 12.2565 13.6531 12.3286C13.7069 12.4365 13.7428 12.5622 13.671 12.7061C13.6602 12.7276 13.6503 12.748 13.6407 12.7674C13.5868 12.8776 13.5471 12.9586 13.4556 13.0654C13.4196 13.1075 13.3824 13.1528 13.3452 13.1981C13.2711 13.2884 13.197 13.3786 13.1324 13.4429C13.0246 13.5503 12.9123 13.6669 13.038 13.8826C13.1636 14.0983 13.596 14.8037 14.2365 15.375C14.9249 15.9891 15.5233 16.2486 15.8266 16.3802C15.8858 16.4059 15.9338 16.4267 15.969 16.4443C16.1844 16.5522 16.31 16.5341 16.4357 16.3904C16.5614 16.2466 16.9743 15.7613 17.1179 15.5456C17.2615 15.33 17.4051 15.366 17.6026 15.4378C17.8001 15.5098 18.8593 16.0309 19.0747 16.1387C19.1168 16.1598 19.1561 16.1788 19.1926 16.1964Z" fill="#FDFDFD"/>
</svg>

<svg xmlns="http://www.w3.org/2000/svg" width="30" height="30" fill="none"><path fill="#25D366" d="M14.666 29.395c8.008 0 14.5-6.492 14.5-14.5s-6.492-14.5-14.5-14.5-14.5 6.492-14.5 14.5 6.492 14.5 14.5 14.5Z"/><path fill="#FDFDFD" fill-rule="evenodd" d="M15.144 22.962h-.004a8.614 8.614 0 0 1-4.12-1.05l-4.57 1.2 1.222-4.468a8.607 8.607 0 0 1-1.15-4.31c.001-4.755 3.87-8.622 8.622-8.622a8.566 8.566 0 0 1 6.099 2.528 8.57 8.57 0 0 1 2.523 6.1c-.002 4.753-3.868 8.62-8.622 8.622Zm-3.912-2.61.261.155c1.1.653 2.362.998 3.648.999h.003c3.95 0 7.164-3.215 7.166-7.166a7.123 7.123 0 0 0-2.097-5.07 7.117 7.117 0 0 0-5.066-2.102c-3.953 0-7.168 3.215-7.17 7.166a7.15 7.15 0 0 0 1.096 3.814l.17.27-.724 2.645 2.713-.711Zm7.96-4.156c.15.073.252.122.296.194.053.09.053.522-.126 1.025-.18.503-1.04.962-1.454 1.024-.371.056-.841.079-1.357-.085-.313-.1-.714-.232-1.228-.454-2.02-.872-3.385-2.83-3.643-3.2a2.642 2.642 0 0 0-.038-.053l-.001-.002c-.114-.152-.878-1.172-.878-2.227 0-.992.487-1.512.712-1.752l.042-.045a.791.791 0 0 1 .574-.27c.144 0 .288.002.413.008h.048c.126 0 .282 0 .437.37.06.143.146.354.238.578.185.45.39.95.426 1.022.054.107.09.233.018.377l-.03.061a1.22 1.22 0 0 1-.185.298 8.834 8.834 0 0 0-.11.133c-.075.09-.149.18-.214.245-.107.107-.22.224-.094.44.126.215.558.92 1.198 1.492.689.614 1.287.874 1.59 1.005.06.026.108.047.143.064.215.108.341.09.467-.054.125-.143.538-.629.682-.844.144-.216.287-.18.485-.108.197.072 1.256.593 1.472.7.042.022.081.04.118.058Z" clip-rule="evenodd"/></svg>
